Resources/Icons/PCGEx_Pin_OUT_PartitionRule.svg

<?xml version="1.0" encoding="UTF-8"?>
<svg id="icons" xmlns="http://www.w3.org/2000/svg" viewBox="0 0 100 100">
  <defs>
    <style>
      .cls-1 {
        fill: #4d8dfc;
      }

      .cls-2 {
        fill: #ffa627;
      }
    </style>
  </defs>
  <path class="cls-2" d="M79.67,64.96c-2.76,0-5,2.24-5,5v5h-5c-2.76,0-5,2.24-5,5,0,1.9,1.07,3.53,2.63,4.38.71.39,1.51.62,2.37.62h10c2.76,0,5-2.24,5-5v-10c0-.86-.24-1.67-.63-2.38-.85-1.56-2.48-2.62-4.37-2.62ZM55.38,74.96h-11.43c-2.76,0-5,2.24-5,5,0,1.9,1.07,3.53,2.62,4.37.71.39,1.51.63,2.38.63h11.43c2.76,0,5-2.24,5-5,0-.86-.24-1.67-.63-2.37-.85-1.56-2.48-2.63-4.37-2.63ZM29.67,74.96h-5v-5c0-.86-.24-1.67-.63-2.38-.85-1.56-2.48-2.62-4.37-2.62-2.76,0-5,2.24-5,5v10c0,1.9,1.07,3.53,2.63,4.38.71.39,1.51.62,2.37.62h10c2.76,0,5-2.24,5-5,0-.86-.24-1.67-.63-2.38-.85-1.56-2.48-2.62-4.37-2.62ZM17.3,60.05c.71.39,1.51.62,2.37.62,2.76,0,5-2.24,5-5v-11.43c0-.86-.24-1.67-.63-2.38-.85-1.56-2.48-2.62-4.37-2.62-2.76,0-5,2.24-5,5v11.43c0,1.9,1.07,3.53,2.63,4.38ZM29.67,14.96h-10c-2.76,0-5,2.24-5,5v10c0,1.9,1.07,3.53,2.63,4.38.71.39,1.51.62,2.37.62,2.76,0,5-2.24,5-5v-5h5c2.76,0,5-2.24,5-5,0-.86-.24-1.67-.63-2.38-.85-1.56-2.48-2.62-4.37-2.62ZM55.38,14.96h-11.43c-2.76,0-5,2.24-5,5,0,1.9,1.07,3.53,2.62,4.37.71.39,1.51.63,2.38.63h11.43c2.76,0,5-2.24,5-5,0-.86-.24-1.67-.63-2.37-.85-1.56-2.48-2.63-4.37-2.63ZM84.04,17.58c-.85-1.56-2.48-2.62-4.37-2.62h-10c-2.76,0-5,2.24-5,5,0,1.9,1.07,3.53,2.63,4.38.71.39,1.51.62,2.37.62h5v5c0,1.9,1.07,3.53,2.63,4.38.71.39,1.51.62,2.37.62,2.76,0,5-2.24,5-5v-10c0-.86-.24-1.67-.63-2.38ZM79.67,39.24c-2.76,0-5,2.24-5,5v11.43c0,1.9,1.07,3.53,2.63,4.38.71.39,1.51.62,2.37.62,2.76,0,5-2.24,5-5v-11.43c0-.86-.24-1.67-.63-2.38-.85-1.56-2.48-2.62-4.37-2.62Z"/>
  <path class="cls-1" d="M54.31,42.8c-1.4-.91-3-1.38-4.62-1.38-.6,0-1.2.06-1.8.19-4.6.98-7.55,5.52-6.56,10.12.48,2.23,1.79,4.14,3.7,5.38s4.19,1.66,6.42,1.18c2.23-.47,4.14-1.79,5.38-3.7,1.24-1.91,1.66-4.19,1.18-6.42-.47-2.23-1.79-4.14-3.7-5.38Z"/>
  <path d="M84.04,67.58c.39.71.63,1.51.63,2.38v10c0,2.76-2.24,5-5,5h-10c-.86,0-1.66-.24-2.37-.62.85,1.56,2.48,2.62,4.37,2.62h10c2.76,0,5-2.24,5-5v-10c0-1.9-1.07-3.53-2.63-4.38ZM59.76,77.58c.39.71.63,1.51.63,2.37,0,2.76-2.24,5-5,5h-11.43c-.86,0-1.67-.24-2.38-.63.85,1.56,2.48,2.63,4.37,2.63h11.43c2.76,0,5-2.24,5-5,0-1.9-1.07-3.53-2.62-4.37ZM26.67,74.96v-3c0-1.9-1.07-3.53-2.63-4.38.39.71.63,1.51.63,2.38v5h2ZM34.04,77.58c.39.71.63,1.51.63,2.38,0,2.76-2.24,5-5,5h-10c-.86,0-1.66-.24-2.37-.62.85,1.56,2.48,2.62,4.37,2.62h10c2.76,0,5-2.24,5-5,0-1.9-1.07-3.53-2.63-4.38ZM21.67,62.67c2.76,0,5-2.24,5-5v-11.43c0-1.9-1.07-3.53-2.63-4.38.39.71.63,1.51.63,2.38v11.43c0,2.76-2.24,5-5,5-.86,0-1.66-.24-2.37-.62.85,1.56,2.48,2.62,4.37,2.62ZM21.67,36.96c2.76,0,5-2.24,5-5v-5h5c2.76,0,5-2.24,5-5,0-1.9-1.07-3.53-2.63-4.38.39.71.63,1.51.63,2.38,0,2.76-2.24,5-5,5h-5v5c0,2.76-2.24,5-5,5-.86,0-1.66-.24-2.37-.62.85,1.56,2.48,2.62,4.37,2.62ZM45.96,26.96h11.43c2.76,0,5-2.24,5-5,0-1.9-1.07-3.53-2.62-4.37.39.71.63,1.51.63,2.37,0,2.76-2.24,5-5,5h-11.43c-.86,0-1.67-.24-2.38-.63.85,1.56,2.48,2.63,4.37,2.63ZM71.67,26.96h3v-2h-5c-.86,0-1.66-.24-2.37-.62.85,1.56,2.48,2.62,4.37,2.62ZM84.04,17.58c.39.71.63,1.51.63,2.38v10c0,2.76-2.24,5-5,5-.86,0-1.66-.24-2.37-.62.85,1.56,2.48,2.62,4.37,2.62,2.76,0,5-2.24,5-5v-10c0-1.9-1.07-3.53-2.63-4.38ZM84.04,41.87c.39.71.63,1.51.63,2.38v11.43c0,2.76-2.24,5-5,5-.86,0-1.66-.24-2.37-.62.85,1.56,2.48,2.62,4.37,2.62,2.76,0,5-2.24,5-5v-11.43c0-1.9-1.07-3.53-2.63-4.38ZM57.03,38.6c-3.03-1.97-6.65-2.63-10.19-1.88-7.3,1.56-11.97,8.76-10.41,16.06,1.36,6.35,6.98,10.71,13.23,10.71.93,0,1.88-.1,2.83-.3,3.54-.75,6.56-2.84,8.53-5.87,1.97-3.03,2.63-6.65,1.88-10.19s-2.84-6.56-5.87-8.53ZM56.83,54.6c-1.24,1.91-3.15,3.23-5.38,3.7-2.23.48-4.51.06-6.42-1.18s-3.23-3.15-3.7-5.38c-.98-4.6,1.96-9.14,6.56-10.12.6-.13,1.2-.19,1.8-.19,1.63,0,3.22.47,4.62,1.38,1.91,1.24,3.23,3.15,3.7,5.38.48,2.23.05,4.51-1.18,6.42Z"/>
</svg>

<svg xmlns="http://www.w3.org/2000/svg" viewBox="0 0 100 100"><defs><style>.cls-1{fill:#ffa627;}.cls-2{fill:#4d8dfc;}</style></defs><g id="icons"><path class="cls-1" d="M79.67,65a5,5,0,0,0-5,5v5h-5a5,5,0,0,0-2.37,9.37,4.87,4.87,0,0,0,2.37.63h10a5,5,0,0,0,5-5V70A4.91,4.91,0,0,0,84,67.58,5,5,0,0,0,79.67,65ZM55.38,75H44a5,5,0,0,0-2.38,9.37A4.91,4.91,0,0,0,44,85H55.38a5,5,0,0,0,5-5,4.9,4.9,0,0,0-.62-2.38A5,5,0,0,0,55.38,75ZM29.67,75h-5V70A4.91,4.91,0,0,0,24,67.58,5,5,0,0,0,14.67,70V80a5,5,0,0,0,2.63,4.37,4.87,4.87,0,0,0,2.37.63h10a5,5,0,0,0,5-5A4.91,4.91,0,0,0,34,77.58,5,5,0,0,0,29.67,75ZM17.3,60.05a5,5,0,0,0,7.37-4.38V44.24A4.9,4.9,0,0,0,24,41.87a5,5,0,0,0-9.37,2.37V55.67A5,5,0,0,0,17.3,60.05ZM29.67,15h-10a5,5,0,0,0-5,5V30a5,5,0,0,0,2.63,4.37,4.87,4.87,0,0,0,2.37.63,5,5,0,0,0,5-5V25h5a5,5,0,0,0,5-5A4.91,4.91,0,0,0,34,17.58,5,5,0,0,0,29.67,15Zm25.71,0H44a5,5,0,0,0-2.38,9.37A4.91,4.91,0,0,0,44,25H55.38a5,5,0,0,0,5-5,4.9,4.9,0,0,0-.62-2.38A5,5,0,0,0,55.38,15ZM84,17.58A5,5,0,0,0,79.67,15h-10a5,5,0,0,0-2.37,9.37,4.87,4.87,0,0,0,2.37.63h5v5a5,5,0,0,0,2.63,4.37,4.87,4.87,0,0,0,2.37.63,5,5,0,0,0,5-5V20A4.91,4.91,0,0,0,84,17.58ZM79.67,39.24a5,5,0,0,0-5,5V55.67a5,5,0,0,0,10,0V44.24A4.9,4.9,0,0,0,84,41.87,5,5,0,0,0,79.67,39.24Z"/><path class="cls-2" d="M54.31,42.8a8.44,8.44,0,0,0-4.62-1.38,9.17,9.17,0,0,0-1.8.19A8.54,8.54,0,0,0,45,57.12,8.53,8.53,0,0,0,54.31,42.8Z"/><path d="M84,67.58A4.91,4.91,0,0,1,84.67,70V80a5,5,0,0,1-5,5h-10a4.87,4.87,0,0,1-2.37-.63A5,5,0,0,0,71.67,87h10a5,5,0,0,0,5-5V72A5,5,0,0,0,84,67.58Zm-24.28,10A4.9,4.9,0,0,1,60.38,80a5,5,0,0,1-5,5H44a4.91,4.91,0,0,1-2.38-.63A5,5,0,0,0,46,87H57.38a5,5,0,0,0,2.38-9.38ZM26.67,75V72A5,5,0,0,0,24,67.58,4.91,4.91,0,0,1,24.67,70v5ZM34,77.58A4.91,4.91,0,0,1,34.67,80a5,5,0,0,1-5,5h-10a4.87,4.87,0,0,1-2.37-.63A5,5,0,0,0,21.67,87h10A5,5,0,0,0,34,77.58ZM21.67,62.67a5,5,0,0,0,5-5V46.24A5,5,0,0,0,24,41.87a4.9,4.9,0,0,1,.63,2.37V55.67a5,5,0,0,1-7.37,4.38A5,5,0,0,0,21.67,62.67Zm0-25.71a5,5,0,0,0,5-5V27h5A5,5,0,0,0,34,17.58,4.91,4.91,0,0,1,34.67,20a5,5,0,0,1-5,5h-5v5a5,5,0,0,1-5,5,4.87,4.87,0,0,1-2.37-.63A5,5,0,0,0,21.67,37ZM46,27H57.38a5,5,0,0,0,2.38-9.38A4.9,4.9,0,0,1,60.38,20a5,5,0,0,1-5,5H44a4.91,4.91,0,0,1-2.38-.63A5,5,0,0,0,46,27Zm25.71,0h3V25h-5a4.87,4.87,0,0,1-2.37-.63A5,5,0,0,0,71.67,27ZM84,17.58A4.91,4.91,0,0,1,84.67,20V30a5,5,0,0,1-5,5,4.87,4.87,0,0,1-2.37-.63A5,5,0,0,0,86.67,32V22A5,5,0,0,0,84,17.58Zm0,24.29a4.9,4.9,0,0,1,.63,2.37V55.67a5,5,0,0,1-7.37,4.38,5,5,0,0,0,9.37-2.38V46.24A5,5,0,0,0,84,41.87ZM57,38.6a13.53,13.53,0,1,0-7.36,24.89,13,13,0,0,0,2.82-.3A13.54,13.54,0,0,0,57,38.6Zm-.2,16a8.53,8.53,0,1,1-8.94-13,9.17,9.17,0,0,1,1.8-.19A8.54,8.54,0,0,1,56.83,54.6Z"/></g></svg>
